assets/images/apple.svg

<svg width="21" height="24" viewBox="0 0 21 24" fill="none" xmlns="http://www.w3.org/2000/svg">
<path d="M15.3687 0H15.5394C15.6764 1.69253 15.0304 2.95719 14.2452 3.87301C13.4749 4.78251 12.4199 5.6646 10.7137 5.53076C10.5999 3.86247 11.2469 2.69161 12.031 1.77789C12.7582 0.92636 14.0914 0.168621 15.3687 0ZM20.5337 17.6167V17.6641C20.0542 19.1163 19.3703 20.361 18.5356 21.516C17.7736 22.5646 16.8399 23.9758 15.1727 23.9758C13.732 23.9758 12.7751 23.0494 11.2986 23.0241C9.73674 22.9988 8.87783 23.7987 7.44982 24H6.96293C5.91432 23.8482 5.06805 23.0178 4.45153 22.2695C2.63359 20.0585 1.22877 17.2025 0.967407 13.5476V12.4737C1.07806 9.85799 2.34904 7.73126 4.03841 6.70057C4.92999 6.15255 6.15566 5.68568 7.52043 5.89435C8.10533 5.98498 8.70288 6.18522 9.22666 6.38335C9.72304 6.5741 10.3438 6.9124 10.9318 6.89448C11.3302 6.88289 11.7265 6.67527 12.128 6.52878C13.3041 6.10407 14.4571 5.61718 15.9768 5.84587C17.8031 6.12199 19.0994 6.93347 19.9004 8.18548C18.3554 9.16875 17.1339 10.6505 17.3426 13.1809C17.5281 15.4794 18.8644 16.8241 20.5337 17.6167Z" fill="black"/>
</svg>

<svg width="21" height="24" fill="none" xmlns="http://www.w3.org/2000/svg"><path d="M15.369 0h.17c.137 1.693-.509 2.957-1.294 3.873-.77.91-1.825 1.792-3.531 1.658-.114-1.669.533-2.84 1.317-3.753.727-.852 2.06-1.61 3.338-1.778Zm5.165 17.617v.047c-.48 1.452-1.164 2.697-1.998 3.852-.762 1.049-1.696 2.46-3.363 2.46-1.441 0-2.398-.927-3.874-.952C9.737 23 8.878 23.8 7.449 24h-.486c-1.049-.152-1.895-.982-2.511-1.73-1.818-2.212-3.223-5.067-3.485-8.722v-1.074C1.078 9.858 2.35 7.73 4.038 6.7c.892-.548 2.118-1.015 3.482-.807.585.091 1.183.291 1.707.49.496.19 1.117.528 1.705.51.398-.011.794-.219 1.196-.365 1.176-.425 2.33-.912 3.849-.683 1.826.276 3.122 1.087 3.923 2.34-1.545.983-2.766 2.464-2.557 4.995.185 2.298 1.521 3.643 3.19 4.436Z" fill="#000"/></svg>
